X:1
T:Title
%%score 1 ( 2 3 )
L:1/8
Q:1/4=90
M:9/8
K:Eb
V:1 treble nm="Strings 1, Soprano"
V:2 bass nm="Strings 1, Bass"
V:3 bass 
V:1
 z3 z3 [GB]2 [FA] | [EG]3- [EG]2 [EG] [EA]2 [EA] | [EA] [EG]2- [EG]3 [EG]2 [B,F] | %3
w: 1.~Cast~ thy~|bread~ * up on~ the~|wa ter,~ * 'Twill~ re|
 [B,E]3- [B,E]2 [B,E] [EG]2 [EG] | [DF]6 [DB]2 [FA] | [EG]3- [EG]2 [EG] [EA]2 [EA] | %6
w: turn~ * in~ man y~|days;~ Crumbs~ of~|truth~ * for~ Je sus~|
 [EA] [EG]2- [EG]3 [GB]2 [_G=A] | [GB]3- [GB]2 [EG] [EG]2 [B,F] | %8
w: scat ter,~ * All~ a|long~ * thy~ pil grim~|
[M:12/8] [B,E]6 [EG]2 [FA] [GB]3- | [GB]3- [GB]2 [GB] [Ac]2 [GB] [GB] [Ge]2- | %10
w: ways.~ * * *||
 [Ge]6 [GB]2 [EG] [DA]3- | [DA]3- [DA]2 [DF] [DB]2 [FA] [EG]3- | [EG]6 [EG]2 [FA] [GB]3- | %13
w: |||
 [GB]3- [GB]2 [GB] [Ac]2 [GB] [GB] [Ge]2- | [Ge]6 [Bd]2 [Ac] [GB]3- | %15
w: ||
 [GB]3- [GB]2 [EG] [EG]2 [DF] E2 B, | C2 C .B,3 z6 |] %17
w: ||
V:2
 z3 z3 [E,B,]2 [E,B,] | [E,B,]3- [E,B,]2 [E,B,] [E,C]2 [E,C] | %2
 [E,C] [E,B,]2- [E,B,]3 [E,B,]2 [E,A,] | [E,G,]3- [E,G,]2 [E,G,] [E,B,]2 [E,B,] | %4
 [B,,B,]6 [B,,B,]2 [D,B,] | [E,B,]3- [E,B,]2 [E,B,] [E,C]2 [E,C] | %6
 [E,C] [E,B,]2- [E,B,]3 [E,E]2 [E,E] | [E,E]3- [E,E]2 [E,B,] [B,,B,]2 [B,,A,] | %8
[M:12/8] [E,G,]6 z6 | [E,E]2 [E,E] [E,E]2 [E,E] [E,E]2 [E,E] [E,E] [E,B,]2- | [E,B,]6 z6 | %11
 [B,,B,]2 [B,,B,] .[B,,B,]3 z3 z2 [E,B,] | [E,B,]2 [E,B,] .[E,B,]3 z6 | %13
 [E,E]2 [E,E] [E,E]2 [E,E] [E,E]2 [E,E] [E,E] [E,E]2- | [E,E]6 z6 | %15
 [E,E]2 [E,E] [E,E]2 [E,B,] [B,,B,]2 [B,,A,] E,2- [E,-G,] | [E,-A,]2 [E,-A,] [E,G,]3 z6 |] %17
V:3
 x9 | x9 | x9 | x9 | x9 | x9 | x9 | x9 |[M:12/8] x12 | x12 | x12 | x12 | x12 | x12 | x12 | %15
 z6 z3 .G,3 | x12 |] %17

